src/assets/svg/label.svg

<svg enable-background="new 0 0 512 512" version="1.1" viewBox="0 0 512 512" xml:space="preserve"
     xmlns="http://www.w3.org/2000/svg">
		<path d="m458.67 0h-135.32c-25.643 0-49.771 9.984-67.904 28.117l-237.25 237.27c-11.562 11.562-18.197 27.562-18.197 43.989 0 16.341 6.635 32.341 18.197 43.904l140.54 140.54c11.542 11.541 27.542 18.176 43.968 18.176 16.341 0 32.341-6.635 43.904-18.197l237.27-237.27c18.134-18.113 28.118-42.241 28.118-67.883v-135.32c0-29.418-23.915-53.333-53.333-53.333zm-64 170.67c-29.419 0-53.333-23.915-53.333-53.333 0-29.419 23.915-53.333 53.333-53.333s53.333 23.914 53.333 53.332c0 29.419-23.915 53.334-53.333 53.334z"/>
</svg>

<?xml version="1.0" encoding="iso-8859-1"?>
<!-- Generator: Adobe Illustrator 19.0.0, SVG Export Plug-In . SVG Version: 6.00 Build 0)  -->
<svg version="1.1" id="Capa_1" xmlns="http://www.w3.org/2000/svg" xmlns:xlink="http://www.w3.org/1999/xlink" x="0px" y="0px"
	 viewBox="0 0 512 512" style="enable-background:new 0 0 512 512;" xml:space="preserve">
<g>
	<g>
		<path d="M458.667,0H323.349c-25.643,0-49.771,9.984-67.904,28.117L18.197,265.387C6.635,276.949,0,292.949,0,309.376
			c0,16.341,6.635,32.341,18.197,43.904l140.544,140.544C170.283,505.365,186.283,512,202.709,512
			c16.341,0,32.341-6.635,43.904-18.197l237.269-237.269C502.016,238.421,512,214.293,512,188.651V53.333
			C512,23.915,488.085,0,458.667,0z M394.667,170.667c-29.419,0-53.333-23.915-53.333-53.333c0-29.419,23.915-53.333,53.333-53.333
			S448,87.915,448,117.333C448,146.752,424.085,170.667,394.667,170.667z"/>
	</g>
</g>
<g>
</g>
<g>
</g>
<g>
</g>
<g>
</g>
<g>
</g>
<g>
</g>
<g>
</g>
<g>
</g>
<g>
</g>
<g>
</g>
<g>
</g>
<g>
</g>
<g>
</g>
<g>
</g>
<g>
</g>
</svg>
